packages/core/assets/Icons/reply_all.svg

<svg viewBox="0 0 20 20" fill="none" xmlns="http://www.w3.org/2000/svg">
<path d="M4.02075 9.16665L7.27075 12.4166C7.43742 12.5833 7.51728 12.7778 7.51034 13C7.50339 13.2222 7.41659 13.4166 7.24992 13.5833C7.08325 13.7361 6.88881 13.816 6.66659 13.8229C6.44436 13.8298 6.24992 13.75 6.08325 13.5833L2.24992 9.74998C2.16659 9.66665 2.10756 9.57637 2.07284 9.47915C2.03811 9.38192 2.02075 9.27776 2.02075 9.16665C2.02075 9.05554 2.03811 8.95137 2.07284 8.85415C2.10756 8.75692 2.16659 8.66665 2.24992 8.58331L6.08325 4.74998C6.23603 4.5972 6.427 4.52081 6.65617 4.52081C6.88534 4.52081 7.08325 4.5972 7.24992 4.74998C7.41659 4.91665 7.49992 5.11456 7.49992 5.34373C7.49992 5.5729 7.41659 5.77081 7.24992 5.93748L4.02075 9.16665ZM9.02075 9.99998L11.4374 12.4166C11.6041 12.5833 11.6839 12.7778 11.677 13C11.6701 13.2222 11.5833 13.4166 11.4166 13.5833C11.2499 13.7361 11.0555 13.816 10.8333 13.8229C10.611 13.8298 10.4166 13.75 10.2499 13.5833L6.41659 9.74998C6.33325 9.66665 6.27422 9.57637 6.2395 9.47915C6.20478 9.38192 6.18742 9.27776 6.18742 9.16665C6.18742 9.05554 6.20478 8.95137 6.2395 8.85415C6.27422 8.75692 6.33325 8.66665 6.41659 8.58331L10.2499 4.74998C10.4027 4.5972 10.5937 4.52081 10.8228 4.52081C11.052 4.52081 11.2499 4.5972 11.4166 4.74998C11.5833 4.91665 11.6666 5.11456 11.6666 5.34373C11.6666 5.5729 11.5833 5.77081 11.4166 5.93748L9.02075 8.33331H14.1666C15.3194 8.33331 16.302 8.73956 17.1145 9.55206C17.927 10.3646 18.3333 11.3472 18.3333 12.5V15C18.3333 15.2361 18.2534 15.434 18.0937 15.5937C17.9339 15.7535 17.736 15.8333 17.4999 15.8333C17.2638 15.8333 17.0659 15.7535 16.9062 15.5937C16.7464 15.434 16.6666 15.2361 16.6666 15V12.5C16.6666 11.8055 16.4235 11.2153 15.9374 10.7291C15.4513 10.243 14.861 9.99998 14.1666 9.99998H9.02075Z" fill="currentColor"/>
</svg>

<svg xmlns="http://www.w3.org/2000/svg" width="20" height="20" fill="none" viewBox="0 0 20 20">
  <path fill="#201F1F" d="m4.02 9.167 3.25 3.25a.764.764 0 0 1 .24.583.839.839 0 0 1-.26.583.879.879 0 0 1-.583.24.763.763 0 0 1-.584-.24L2.25 9.75a.731.731 0 0 1-.177-.27.922.922 0 0 1-.052-.313c0-.111.017-.216.052-.313a.731.731 0 0 1 .177-.27L6.083 4.75a.777.777 0 0 1 .573-.23c.23 0 .427.077.594.23.167.167.25.365.25.594a.807.807 0 0 1-.25.593l-3.23 3.23Zm5 .833 2.417 2.417a.764.764 0 0 1 .24.583.838.838 0 0 1-.26.583.879.879 0 0 1-.584.24.764.764 0 0 1-.583-.24L6.417 9.75a.73.73 0 0 1-.178-.27.922.922 0 0 1-.052-.313c0-.111.018-.216.052-.313a.731.731 0 0 1 .178-.27L10.25 4.75a.777.777 0 0 1 .573-.23.85.85 0 0 1 .594.23c.166.167.25.365.25.594a.811.811 0 0 1-.25.593L9.02 8.333h5.146c1.152 0 2.135.407 2.947 1.22.813.812 1.22 1.794 1.22 2.947V15c0 .236-.08.434-.24.594a.806.806 0 0 1-.594.24.806.806 0 0 1-.594-.24.806.806 0 0 1-.24-.594v-2.5c0-.694-.242-1.285-.729-1.77a2.41 2.41 0 0 0-1.77-.73H9.02Z"/>
</svg>
